( pcb2gcode 1.2.1 )
( Software-independent Gcode )
      
G94 ( Millimeters per minute feed rate. )
G21 ( Units == Millimeters. )

G90 ( Absolute coordinates. )
S6000 ( RPM spindle speed. )
G64 P0.05080 ( set maximum deviation from commanded toolpath )
F200.00000 ( Feedrate. )

F200.00000 ( Feedrate. )
M3 ( Spindle on clockwise. )
G04 P0 ( dwell for no time -- G64 should not smooth over this point )
G00 Z1.00000 ( retract )

G00 X18.92300 Y40.23677 ( rapid move to begin. )
G01 Z-0.20000
G04 P0 ( dwell for no time -- G64 should not smooth over this point )
X18.92300 Y40.23677
X19.12620 Y40.05897
X19.43100 Y39.55097
X19.55800 Y38.86517
X19.53260 Y37.46817
X19.30400 Y36.88397
X18.92300 Y36.45217
X18.44040 Y36.12197
X17.98320 Y35.96957
X16.40840 Y35.96957
X16.07820 Y36.04577
X15.64640 Y36.22357
X15.21460 Y36.60457
X15.03680 Y36.83317
X14.80820 Y37.41737
X14.75740 Y37.77297
X14.78280 Y39.16997
X15.01140 Y39.75417
X15.16380 Y40.00817
X15.57020 Y40.41457
X16.28140 Y40.71937
X17.06880 Y40.74477
X17.85620 Y40.71937
X18.36420 Y40.61777
X18.92300 Y40.26217
G04 P0 ( dwell for no time -- G64 should not smooth over this point )
G00 Z1.00000 ( retract )

G00 X44.93260 Y40.23677 ( rapid move to begin. )
G01 Z-0.20000
G04 P0 ( dwell for no time -- G64 should not smooth over this point )
X44.93260 Y40.23677
X45.13580 Y40.05897
X45.44060 Y39.55097
X45.56760 Y38.86517
X45.54220 Y37.46817
X45.31360 Y36.88397
X44.93260 Y36.45217
X44.45000 Y36.12197
X43.99280 Y35.96957
X42.41800 Y35.96957
X42.08780 Y36.04577
X41.65600 Y36.22357
X41.22420 Y36.60457
X41.04640 Y36.83317
X40.81780 Y37.41737
X40.76700 Y37.77297
X40.79240 Y39.16997
X41.02100 Y39.75417
X41.17340 Y40.00817
X41.57980 Y40.41457
X42.29100 Y40.71937
X43.07840 Y40.74477
X43.86580 Y40.71937
X44.37380 Y40.61777
X44.93260 Y40.26217
G04 P0 ( dwell for no time -- G64 should not smooth over this point )
G00 Z1.00000 ( retract )

G00 X31.95320 Y39.90657 ( rapid move to begin. )
G01 Z-0.20000
G04 P0 ( dwell for no time -- G64 should not smooth over this point )
X31.95320 Y39.90657
X31.95320 Y39.83037
X32.35960 Y39.83037
X32.79140 Y39.44937
X32.89300 Y39.14457
X32.91840 Y38.05237
X32.96920 Y38.00157
X34.59480 Y38.00157
X34.84880 Y37.84917
X34.84880 Y35.91877
X34.59480 Y35.66477
X34.59480 Y31.29597
X33.80740 Y31.27057
X33.42640 Y31.34677
X33.35020 Y31.67697
X33.35020 Y35.33457
X33.29940 Y35.63937
X32.89300 Y35.74097
X32.81680 Y36.17277
X32.48660 Y36.24897
X32.20720 Y36.37597
X31.82620 Y36.80777
X31.80080 Y38.00157
X27.76220 Y38.02697
X27.73680 Y40.38917
X31.95320 Y40.38917
X31.95320 Y39.93197
G04 P0 ( dwell for no time -- G64 should not smooth over this point )
G00 Z1.00000 ( retract )

G00 X35.15360 Y39.90657 ( rapid move to begin. )
G01 Z-0.20000
G04 P0 ( dwell for no time -- G64 should not smooth over this point )
X35.15360 Y39.90657
X35.17900 Y39.85577
X35.96640 Y39.88117
X35.96640 Y40.38917
X38.32860 Y40.41457
X38.30320 Y38.00157
X35.96640 Y38.00157
X35.94100 Y34.26777
X36.04260 Y34.26777
X36.04260 Y31.42297
X35.81400 Y31.24517
X34.59480 Y31.24517
X34.62020 Y35.69017
X34.82340 Y35.89337
X34.84880 Y37.49357
X34.82340 Y37.87457
X34.64560 Y38.00157
X32.94380 Y38.02697
X32.89300 Y39.19537
X32.79140 Y39.50017
X32.79140 Y40.41457
X35.12820 Y40.41457
X35.15360 Y39.93197
G04 P0 ( dwell for no time -- G64 should not smooth over this point )
G00 Z1.00000 ( retract )

G00 X24.99360 Y37.69677 ( rapid move to begin. )
G01 Z-0.20000
G04 P0 ( dwell for no time -- G64 should not smooth over this point )
X24.99360 Y37.69677
X25.01900 Y37.64597
X27.71140 Y37.64597
X27.73680 Y38.02697
X29.84500 Y38.00157
X29.87040 Y35.79177
X30.32760 Y35.63937
X30.83560 Y35.13137
X30.86100 Y34.24237
X30.81020 Y34.19157
X30.81020 Y31.14357
X30.75940 Y31.09277
X30.37840 Y31.11817
X29.61640 Y31.37217
X29.51480 Y31.67697
X29.51480 Y34.11537
X29.23540 Y34.24237
X28.39720 Y35.02977
X28.21940 Y35.25837
X28.16860 Y35.61397
X27.71140 Y35.61397
X27.71140 Y36.22357
X24.99360 Y36.24897
X24.99360 Y35.79177
X22.65680 Y35.79177
X22.63140 Y38.20477
X24.96820 Y38.20477
X24.99360 Y37.72217
G04 P0 ( dwell for no time -- G64 should not smooth over this point )
G00 Z1.00000 ( retract )

G00 X31.82620 Y37.62057 ( rapid move to begin. )
G01 Z-0.20000
G04 P0 ( dwell for no time -- G64 should not smooth over this point )
X31.82620 Y37.62057
X31.82620 Y36.83317
X31.87700 Y36.68077
X32.30880 Y36.29977
X32.61360 Y36.19817
X32.81680 Y35.99497
X32.89300 Y35.71557
X33.19780 Y35.61397
X33.29940 Y35.51237
X33.35020 Y35.15677
X33.35020 Y31.70237
X33.42640 Y31.37217
X33.73120 Y31.27057
X35.33140 Y31.24517
X35.91560 Y31.27057
X36.06800 Y31.42297
X36.88080 Y31.42297
X36.90620 Y31.85477
X39.24300 Y31.85477
X39.26840 Y29.44177
X36.93160 Y29.44177
X36.90620 Y30.02597
X34.46780 Y30.02597
X34.11220 Y30.07677
X33.29940 Y30.07677
X32.96920 Y30.15297
X32.53740 Y30.53397
X32.15640 Y30.96577
X32.05480 Y31.16897
X32.05480 Y34.21697
X30.60700 Y35.61397
X30.40380 Y35.61397
X29.87040 Y35.79177
X29.84500 Y38.00157
X31.82620 Y38.00157
X31.82620 Y37.64597
G04 P0 ( dwell for no time -- G64 should not smooth over this point )
G00 Z1.00000 ( retract )

G00 X38.32860 Y37.62057 ( rapid move to begin. )
G01 Z-0.20000
G04 P0 ( dwell for no time -- G64 should not smooth over this point )
X38.32860 Y37.62057
X38.32860 Y35.61397
X35.99180 Y35.61397
X35.96640 Y37.21417
X35.99180 Y38.00157
X38.32860 Y38.00157
X38.32860 Y37.64597
G04 P0 ( dwell for no time -- G64 should not smooth over this point )
G00 Z1.00000 ( retract )

G00 X24.99360 Y35.41077 ( rapid move to begin. )
G01 Z-0.20000
G04 P0 ( dwell for no time -- G64 should not smooth over this point )
X24.99360 Y35.41077
X25.01900 Y33.42957
X25.27300 Y33.58197
X26.67000 Y33.60737
X26.82240 Y33.55657
X26.82240 Y34.26777
X28.24480 Y34.26777
X28.27020 Y31.14357
X28.21940 Y31.09277
X26.89860 Y31.09277
X26.72080 Y31.01657
X26.72080 Y26.24137
X26.82240 Y26.13977
X26.87320 Y25.98737
X27.12720 Y25.83497
X27.94000 Y25.02217
X28.27020 Y24.74277
X28.27020 Y22.30437
X28.19400 Y21.97417
X28.09240 Y21.87257
X27.10180 Y21.89797
X26.82240 Y22.22817
X26.82240 Y23.54897
X25.32380 Y25.09837
X25.32380 Y30.99117
X24.99360 Y31.16897
X24.99360 Y31.01657
X22.65680 Y31.01657
X22.63140 Y31.39757
X21.03120 Y31.42297
X20.65020 Y31.39757
X19.63420 Y30.38157
X19.60880 Y29.39097
X19.81200 Y29.28937
X20.01520 Y28.98457
X20.01520 Y28.88297
X21.43760 Y28.88297
X21.59000 Y28.83217
X22.40280 Y28.01937
X22.58060 Y27.79077
X22.60600 Y21.61857
X22.73300 Y21.54237
X22.73300 Y19.71357
X22.63140 Y19.61197
X20.62480 Y19.63737
X20.62480 Y21.05977
X20.80260 Y21.49157
X21.23440 Y21.66937
X21.25980 Y25.50477
X21.20900 Y25.65717
X21.18360 Y26.64777
X20.37080 Y27.46057
X20.19300 Y27.48597
X20.01520 Y27.46057
X19.88820 Y27.18117
X19.53260 Y26.92717
X17.93240 Y26.90177
X17.67840 Y27.05417
X17.50060 Y27.28277
X17.42440 Y27.61297
X17.42440 Y28.83217
X17.55140 Y29.11157
X17.72920 Y29.34017
X17.85620 Y29.41637
X17.85620 Y31.44837
X17.93240 Y31.77857
X19.15160 Y32.99777
X19.40560 Y33.15017
X22.63140 Y33.17557
X22.65680 Y35.79177
X24.99360 Y35.79177
X24.99360 Y35.43617
G04 P0 ( dwell for no time -- G64 should not smooth over this point )
G00 Z1.00000 ( retract )

G00 X29.51480 Y33.75977 ( rapid move to begin. )
G01 Z-0.20000
G04 P0 ( dwell for no time -- G64 should not smooth over this point )
X29.51480 Y33.75977
X29.51480 Y31.75317
X29.61640 Y31.34677
X30.50540 Y31.01657
X30.70860 Y30.81337
X30.96260 Y30.25457
X31.77540 Y29.44177
X31.95320 Y29.21317
X32.08020 Y28.93377
X32.08020 Y26.29217
X32.13100 Y26.13977
X32.71520 Y25.91117
X33.14700 Y25.53017
X33.32480 Y25.30157
X33.35020 Y21.56777
X32.56280 Y21.59317
X32.05480 Y21.79637
X32.02940 Y24.41257
X31.95320 Y24.53957
X31.34360 Y24.74277
X30.75940 Y25.37777
X30.73400 Y25.75877
X30.78480 Y26.11437
X30.78480 Y28.55277
X30.70860 Y28.78137
X29.94660 Y29.03537
X28.21940 Y30.76257
X28.21940 Y31.11817
X28.27020 Y31.16897
X28.27020 Y34.26777
X29.08300 Y34.26777
X29.51480 Y34.14077
X29.51480 Y33.78517
G04 P0 ( dwell for no time -- G64 should not smooth over this point )
G00 Z1.00000 ( retract )

G00 X32.05480 Y33.75977 ( rapid move to begin. )
G01 Z-0.20000
G04 P0 ( dwell for no time -- G64 should not smooth over this point )
X32.05480 Y33.75977
X32.05480 Y31.34677
X32.13100 Y31.01657
X32.51200 Y30.58477
X32.94380 Y30.20377
X33.22320 Y30.07677
X34.03600 Y30.07677
X34.36620 Y30.00057
X34.64560 Y29.67037
X34.67100 Y29.08617
X34.62020 Y28.93377
X34.62020 Y21.61857
X34.56940 Y21.56777
X33.35020 Y21.56777
X33.35020 Y24.81897
X33.27400 Y25.55557
X33.32480 Y26.31757
X33.32480 Y28.85757
X33.17240 Y28.90837
X32.18180 Y28.93377
X32.05480 Y29.00997
X31.92780 Y29.28937
X30.91180 Y30.30537
X30.73400 Y30.94037
X30.75940 Y31.11817
X30.81020 Y31.16897
X30.81020 Y34.21697
X30.86100 Y34.26777
X31.97860 Y34.26777
X32.05480 Y34.14077
X32.05480 Y33.78517
G04 P0 ( dwell for no time -- G64 should not smooth over this point )
G00 Z1.00000 ( retract )

G00 X57.96280 Y33.55657 ( rapid move to begin. )
G01 Z-0.20000
G04 P0 ( dwell for no time -- G64 should not smooth over this point )
X57.96280 Y33.55657
X57.93740 Y16.74177
X57.70880 Y16.56397
X40.66540 Y16.58937
X40.53840 Y16.66557
X40.46220 Y16.99577
X40.46220 Y22.83777
X39.26840 Y22.81237
X39.26840 Y22.30437
X36.90620 Y22.27897
X36.93160 Y24.69197
X39.26840 Y24.69197
X39.26840 Y24.23477
X40.46220 Y24.26017
X40.46220 Y33.81057
X40.64000 Y34.03917
X57.68340 Y34.06457
X57.83580 Y34.01377
X57.96280 Y33.73437
X57.96280 Y33.58197
G04 P0 ( dwell for no time -- G64 should not smooth over this point )
G00 Z1.00000 ( retract )

G00 X24.99360 Y30.63557 ( rapid move to begin. )
G01 Z-0.20000
G04 P0 ( dwell for no time -- G64 should not smooth over this point )
X24.99360 Y30.63557
X24.99360 Y28.62897
X24.51100 Y28.60357
X24.51100 Y28.50197
X24.99360 Y28.47657
X24.96820 Y26.36837
X22.63140 Y26.36837
X22.65680 Y28.47657
X23.11400 Y28.47657
X23.11400 Y28.62897
X22.63140 Y28.65437
X22.63140 Y30.99117
X24.99360 Y31.01657
X24.99360 Y30.66097
G04 P0 ( dwell for no time -- G64 should not smooth over this point )
G00 Z1.00000 ( retract )

G00 X39.26840 Y29.06077 ( rapid move to begin. )
G01 Z-0.20000
G04 P0 ( dwell for no time -- G64 should not smooth over this point )
X39.26840 Y29.06077
X39.26840 Y24.71737
X36.90620 Y24.69197
X36.93160 Y29.44177
X39.26840 Y29.44177
X39.26840 Y29.08617
G04 P0 ( dwell for no time -- G64 should not smooth over this point )
G00 Z1.00000 ( retract )

G00 X28.27020 Y28.55277 ( rapid move to begin. )
G01 Z-0.20000
G04 P0 ( dwell for no time -- G64 should not smooth over this point )
X28.27020 Y28.55277
X28.27020 Y25.88577
X27.05100 Y25.88577
X26.89860 Y25.93657
X26.82240 Y26.26677
X26.82240 Y29.06077
X28.24480 Y29.06077
X28.27020 Y28.57817
G04 P0 ( dwell for no time -- G64 should not smooth over this point )
G00 Z1.00000 ( retract )

G00 X29.54020 Y28.55277 ( rapid move to begin. )
G01 Z-0.20000
G04 P0 ( dwell for no time -- G64 should not smooth over this point )
X29.54020 Y28.55277
X29.54020 Y25.88577
X28.27020 Y25.88577
X28.27020 Y29.03537
X29.54020 Y29.03537
X29.54020 Y28.57817
G04 P0 ( dwell for no time -- G64 should not smooth over this point )
G00 Z1.00000 ( retract )

G00 X30.75940 Y28.55277 ( rapid move to begin. )
G01 Z-0.20000
G04 P0 ( dwell for no time -- G64 should not smooth over this point )
X30.75940 Y28.55277
X30.78480 Y25.96197
X30.65780 Y25.88577
X29.54020 Y25.88577
X29.54020 Y29.03537
X29.92120 Y29.06077
X30.68320 Y28.80677
X30.75940 Y28.57817
G04 P0 ( dwell for no time -- G64 should not smooth over this point )
G00 Z1.00000 ( retract )

G00 X33.32480 Y28.55277 ( rapid move to begin. )
G01 Z-0.20000
G04 P0 ( dwell for no time -- G64 should not smooth over this point )
X33.32480 Y28.55277
X33.32480 Y25.93657
X33.27400 Y25.88577
X32.86760 Y25.88577
X32.23260 Y26.06357
X32.10560 Y26.13977
X32.08020 Y28.95917
X32.23260 Y28.90837
X33.04540 Y28.90837
X33.29940 Y28.85757
X33.32480 Y28.57817
G04 P0 ( dwell for no time -- G64 should not smooth over this point )
G00 Z1.00000 ( retract )

G00 X36.04260 Y28.55277 ( rapid move to begin. )
G01 Z-0.20000
G04 P0 ( dwell for no time -- G64 should not smooth over this point )
X36.04260 Y28.55277
X36.04260 Y25.88577
X35.94100 Y25.88577
X35.94100 Y24.76817
X36.01720 Y24.74277
X36.04260 Y21.56777
X35.94100 Y21.56777
X35.94100 Y19.53577
X36.04260 Y19.53577
X36.04260 Y16.69097
X36.37280 Y16.66557
X36.32200 Y10.72197
X33.57880 Y10.72197
X33.57880 Y10.82357
X33.68040 Y10.92517
X33.68040 Y12.60157
X31.80080 Y12.60157
X31.82620 Y11.00137
X32.00400 Y10.77277
X31.97860 Y10.59497
X31.59760 Y10.16317
X31.16580 Y9.78217
X27.94000 Y9.75677
X27.58440 Y9.80757
X27.48280 Y9.90917
X26.18740 Y9.93457
X26.18740 Y12.32217
X28.44800 Y12.34757
X28.44800 Y11.53477
X28.60040 Y10.92517
X30.22600 Y10.92517
X30.78480 Y11.07757
X30.88640 Y11.38237
X30.88640 Y13.41437
X30.93720 Y13.76997
X31.14040 Y14.27797
X31.54680 Y14.27797
X31.57220 Y14.35417
X33.95980 Y14.40497
X33.98520 Y16.51317
X34.59480 Y16.51317
X34.59480 Y19.45957
X34.54400 Y19.51037
X34.54400 Y20.17077
X31.52140 Y20.19617
X31.08960 Y20.57717
X30.81020 Y20.90737
X30.78480 Y24.74277
X31.19120 Y24.74277
X31.97860 Y24.51417
X32.05480 Y24.38717
X32.08020 Y21.77097
X32.35960 Y21.64397
X32.68980 Y21.56777
X34.59480 Y21.59317
X34.62020 Y28.98457
X34.74720 Y29.06077
X36.04260 Y29.03537
X36.04260 Y28.57817
G04 P0 ( dwell for no time -- G64 should not smooth over this point )
G00 Z1.00000 ( retract )

G00 X19.98980 Y26.44457 ( rapid move to begin. )
G01 Z-0.20000
G04 P0 ( dwell for no time -- G64 should not smooth over this point )
X19.98980 Y26.44457
X20.01520 Y26.34297
X20.59940 Y26.31757
X21.20900 Y25.70797
X21.25980 Y25.55557
X21.23440 Y21.72017
X21.15820 Y21.59317
X20.77720 Y21.46617
X20.62480 Y21.00897
X20.21840 Y20.60257
X20.62480 Y20.60257
X20.59940 Y18.59597
X18.41500 Y18.59597
X18.44040 Y20.60257
X18.82140 Y20.62797
X18.82140 Y21.74557
X18.89760 Y21.87257
X19.71040 Y22.12657
X19.96440 Y22.88857
X19.96440 Y24.31097
X19.91360 Y24.46337
X19.81200 Y24.56497
X19.58340 Y24.38717
X19.22780 Y24.33637
X17.93240 Y24.36177
X17.67840 Y24.51417
X17.50060 Y24.74277
X17.42440 Y25.07297
X17.42440 Y26.29217
X17.55140 Y26.57157
X17.72920 Y26.80017
X17.85620 Y26.87637
X19.55800 Y26.90177
X19.81200 Y26.74937
X19.98980 Y26.46997
G04 P0 ( dwell for no time -- G64 should not smooth over this point )
G00 Z1.00000 ( retract )

G00 X24.99360 Y25.68257 ( rapid move to begin. )
G01 Z-0.20000
G04 P0 ( dwell for no time -- G64 should not smooth over this point )
X24.99360 Y25.68257
X24.99360 Y25.30157
X25.90800 Y24.28557
X25.90800 Y22.65997
X26.26360 Y22.60917
X26.26360 Y22.20277
X26.84780 Y22.17737
X27.15260 Y21.87257
X28.14320 Y21.89797
X28.27020 Y22.17737
X28.27020 Y24.71737
X29.05760 Y24.74277
X29.54020 Y24.71737
X29.54020 Y21.66937
X29.41320 Y21.38997
X29.00680 Y20.98357
X28.70200 Y20.88197
X26.18740 Y20.85657
X26.08580 Y20.55177
X24.46020 Y20.55177
X24.43480 Y22.15197
X24.46020 Y22.63457
X24.51100 Y22.63457
X24.51100 Y23.14257
X23.59660 Y24.05697
X22.63140 Y24.10777
X22.63140 Y26.19057
X24.96820 Y26.19057
X24.99360 Y25.70797
G04 P0 ( dwell for no time -- G64 should not smooth over this point )
G00 Z1.00000 ( retract )

G00 X30.78480 Y24.23477 ( rapid move to begin. )
G01 Z-0.20000
G04 P0 ( dwell for no time -- G64 should not smooth over this point )
X30.78480 Y24.23477
X30.78480 Y21.00897
X30.86100 Y20.67877
X30.07360 Y19.84057
X29.74340 Y19.56117
X27.33040 Y19.53577
X26.92400 Y19.43417
X26.82240 Y19.12937
X26.61920 Y18.92617
X26.26360 Y18.87537
X26.26360 Y18.46897
X25.24760 Y18.46897
X24.43480 Y18.77377
X24.43480 Y20.55177
X26.06040 Y20.55177
X26.18740 Y20.83117
X28.60040 Y20.85657
X28.93060 Y20.93277
X29.36240 Y21.31377
X29.54020 Y21.64397
X29.54020 Y24.74277
X30.75940 Y24.74277
X30.78480 Y24.26017
G04 P0 ( dwell for no time -- G64 should not smooth over this point )
G00 Z1.00000 ( retract )

G00 X19.96440 Y23.85377 ( rapid move to begin. )
G01 Z-0.20000
G04 P0 ( dwell for no time -- G64 should not smooth over this point )
X19.96440 Y23.85377
X19.96440 Y22.86317
X19.76120 Y22.25357
X19.68500 Y22.12657
X18.74520 Y21.84717
X18.16100 Y21.21217
X18.18640 Y18.59597
X18.69440 Y18.08797
X20.52320 Y18.08797
X20.65020 Y18.01177
X20.75180 Y17.70697
X21.05660 Y17.60537
X21.86940 Y16.79257
X21.94560 Y16.66557
X21.97100 Y14.70977
X22.07260 Y14.70977
X22.27580 Y14.50657
X23.87600 Y14.48117
X23.97760 Y14.37957
X23.97760 Y12.29677
X21.84400 Y12.29677
X21.81860 Y10.69657
X21.84400 Y10.11237
X22.42820 Y9.88377
X22.47900 Y9.83297
X27.55900 Y9.83297
X27.88920 Y9.75677
X31.14040 Y9.75677
X31.97860 Y10.54417
X32.00400 Y10.82357
X31.80080 Y11.02677
X31.80080 Y12.60157
X33.70580 Y12.57617
X33.70580 Y10.95057
X33.55340 Y10.79817
X33.40100 Y10.79817
X33.40100 Y9.57897
X33.35020 Y9.42657
X32.28340 Y8.46137
X25.80640 Y8.43597
X21.36140 Y8.46137
X20.62480 Y9.14717
X20.57400 Y9.29957
X20.54860 Y15.57337
X19.43100 Y16.69097
X17.60220 Y16.69097
X17.44980 Y16.74177
X16.76400 Y17.47837
X16.76400 Y22.35517
X17.44980 Y23.09177
X17.50060 Y24.36177
X19.10080 Y24.33637
X19.88820 Y24.36177
X19.96440 Y24.33637
X19.96440 Y23.87917
G04 P0 ( dwell for no time -- G64 should not smooth over this point )
G00 Z1.00000 ( retract )

G00 X24.43480 Y22.12657 ( rapid move to begin. )
G01 Z-0.20000
G04 P0 ( dwell for no time -- G64 should not smooth over this point )
X24.43480 Y22.12657
X24.46020 Y18.72297
X25.34920 Y18.39277
X26.36520 Y17.37677
X26.41600 Y17.22437
X26.41600 Y16.66557
X26.82240 Y16.66557
X26.84780 Y14.65897
X26.59380 Y14.50657
X26.39060 Y14.50657
X26.21280 Y14.37957
X26.03500 Y14.50657
X24.51100 Y14.50657
X24.43480 Y14.63357
X24.43480 Y16.66557
X24.53640 Y16.66557
X23.92680 Y17.27517
X23.59660 Y17.75777
X23.19020 Y18.16417
X22.98700 Y18.46897
X22.75840 Y18.54517
X22.70760 Y19.51037
X22.63140 Y19.58657
X22.73300 Y19.68817
X22.73300 Y21.51697
X22.63140 Y21.61857
X22.63140 Y22.63457
X24.43480 Y22.60917
X24.43480 Y22.15197
G04 P0 ( dwell for no time -- G64 should not smooth over this point )
G00 Z1.00000 ( retract )

G00 X22.73300 Y19.07857 ( rapid move to begin. )
G01 Z-0.20000
G04 P0 ( dwell for no time -- G64 should not smooth over this point )
X22.73300 Y19.07857
X22.73300 Y18.59597
X23.01240 Y18.46897
X23.13940 Y18.18957
X23.74900 Y17.57997
X23.87600 Y17.30057
X23.87600 Y16.69097
X24.43480 Y16.64017
X24.40940 Y14.53197
X24.13000 Y14.50657
X23.95220 Y14.37957
X23.85060 Y14.48117
X22.25040 Y14.50657
X22.04720 Y14.70977
X22.04720 Y16.64017
X22.30120 Y16.66557
X21.38680 Y17.57997
X21.00580 Y17.60537
X20.72640 Y17.73237
X20.62480 Y18.03717
X20.62480 Y19.56117
X22.63140 Y19.58657
X22.73300 Y19.48497
X22.73300 Y19.07857
G04 P0 ( dwell for no time -- G64 should not smooth over this point )
G00 Z1.00000 ( retract )

G00 X28.27020 Y19.02777 ( rapid move to begin. )
G01 Z-0.20000
G04 P0 ( dwell for no time -- G64 should not smooth over this point )
X28.27020 Y19.02777
X28.27020 Y16.36077
X26.84780 Y16.36077
X26.84780 Y19.15477
X26.92400 Y19.43417
X27.22880 Y19.53577
X28.24480 Y19.53577
X28.27020 Y19.05317
G04 P0 ( dwell for no time -- G64 should not smooth over this point )
G00 Z1.00000 ( retract )

G00 X29.54020 Y19.02777 ( rapid move to begin. )
G01 Z-0.20000
G04 P0 ( dwell for no time -- G64 should not smooth over this point )
X29.54020 Y19.02777
X29.51480 Y16.53857
X29.18460 Y16.46237
X28.98140 Y16.36077
X28.27020 Y16.36077
X28.27020 Y19.51037
X29.05760 Y19.53577
X29.54020 Y19.51037
X29.54020 Y19.05317
G04 P0 ( dwell for no time -- G64 should not smooth over this point )
G00 Z1.00000 ( retract )

G00 X30.81020 Y19.02777 ( rapid move to begin. )
G01 Z-0.20000
G04 P0 ( dwell for no time -- G64 should not smooth over this point )
X30.81020 Y19.02777
X30.81020 Y16.56397
X29.54020 Y16.56397
X29.54020 Y19.51037
X30.32760 Y19.53577
X30.81020 Y19.51037
X30.81020 Y19.05317
G04 P0 ( dwell for no time -- G64 should not smooth over this point )
G00 Z1.00000 ( retract )

G00 X32.08020 Y19.02777 ( rapid move to begin. )
G01 Z-0.20000
G04 P0 ( dwell for no time -- G64 should not smooth over this point )
X32.08020 Y19.02777
X32.08020 Y16.51317
X31.69920 Y16.48777
X31.59760 Y16.38617
X31.41980 Y16.36077
X30.86100 Y16.51317
X30.81020 Y16.56397
X30.81020 Y19.51037
X31.59760 Y19.53577
X32.08020 Y19.51037
X32.08020 Y19.05317
G04 P0 ( dwell for no time -- G64 should not smooth over this point )
G00 Z1.00000 ( retract )

G00 X33.35020 Y19.02777 ( rapid move to begin. )
G01 Z-0.20000
G04 P0 ( dwell for no time -- G64 should not smooth over this point )
X33.35020 Y19.02777
X33.35020 Y16.51317
X32.08020 Y16.51317
X32.10560 Y19.53577
X33.32480 Y19.53577
X33.35020 Y19.05317
G04 P0 ( dwell for no time -- G64 should not smooth over this point )
G00 Z1.00000 ( retract )

G00 X34.59480 Y19.02777 ( rapid move to begin. )
G01 Z-0.20000
G04 P0 ( dwell for no time -- G64 should not smooth over this point )
X34.59480 Y19.02777
X34.59480 Y16.51317
X33.95980 Y16.48777
X33.37560 Y16.51317
X33.35020 Y19.53577
X34.54400 Y19.51037
X34.59480 Y19.45957
X34.59480 Y19.05317
G04 P0 ( dwell for no time -- G64 should not smooth over this point )
G00 Z1.00000 ( retract )

G00 X31.41980 Y16.28457 ( rapid move to begin. )
G01 Z-0.20000
G04 P0 ( dwell for no time -- G64 should not smooth over this point )
X31.41980 Y16.28457
X31.47060 Y16.15757
X31.47060 Y14.93837
X31.39440 Y14.60817
X31.21660 Y14.37957
X31.14040 Y14.35417
X31.08960 Y14.40497
X30.35300 Y14.32877
X29.56560 Y14.35417
X29.13380 Y14.43037
X29.00680 Y14.50657
X28.87980 Y14.68437
X28.85440 Y15.47177
X28.90520 Y16.33537
X29.18460 Y16.46237
X29.51480 Y16.53857
X30.81020 Y16.56397
X30.86100 Y16.51317
X31.34360 Y16.38617
X31.41980 Y16.30997
G04 P0 ( dwell for no time -- G64 should not smooth over this point )
G00 Z1.00000 ( retract )

G00 X33.95980 Y16.15757 ( rapid move to begin. )
G01 Z-0.20000
G04 P0 ( dwell for no time -- G64 should not smooth over this point )
X33.95980 Y16.15757
X33.95980 Y14.40497
X32.35960 Y14.37957
X31.57220 Y14.40497
X31.57220 Y16.33537
X31.80080 Y16.51317
X33.93440 Y16.51317
X33.95980 Y16.18297
G04 P0 ( dwell for no time -- G64 should not smooth over this point )
G00 Z1.00000 ( retract )

G00 X18.92300 Y14.20177 ( rapid move to begin. )
G01 Z-0.20000
G04 P0 ( dwell for no time -- G64 should not smooth over this point )
X18.92300 Y14.20177
X19.12620 Y14.02397
X19.43100 Y13.51597
X19.55800 Y12.83017
X19.53260 Y11.43317
X19.30400 Y10.84897
X18.92300 Y10.41717
X18.44040 Y10.08697
X17.98320 Y9.93457
X17.19580 Y9.90917
X16.40840 Y9.93457
X16.07820 Y10.01077
X15.64640 Y10.18857
X15.21460 Y10.56957
X15.03680 Y10.79817
X14.80820 Y11.38237
X14.75740 Y11.73797
X14.78280 Y13.13497
X15.01140 Y13.71917
X15.16380 Y13.97317
X15.57020 Y14.37957
X16.28140 Y14.68437
X17.06880 Y14.70977
X17.85620 Y14.68437
X18.36420 Y14.58277
X18.92300 Y14.22717
G04 P0 ( dwell for no time -- G64 should not smooth over this point )
G00 Z1.00000 ( retract )

G00 X28.42260 Y14.20177 ( rapid move to begin. )
G01 Z-0.20000
G04 P0 ( dwell for no time -- G64 should not smooth over this point )
X28.42260 Y14.20177
X28.39720 Y12.32217
X25.17140 Y12.29677
X23.97760 Y12.32217
X23.97760 Y14.35417
X24.13000 Y14.50657
X24.33320 Y14.50657
X24.48560 Y14.55737
X24.53640 Y14.50657
X26.06040 Y14.50657
X26.18740 Y14.37957
X26.28900 Y14.48117
X26.67000 Y14.50657
X26.89860 Y14.68437
X28.42260 Y14.68437
X28.44800 Y14.50657
X28.42260 Y14.22717
G04 P0 ( dwell for no time -- G64 should not smooth over this point )
G00 Z1.00000 ( retract )

G00 X44.93260 Y14.20177 ( rapid move to begin. )
G01 Z-0.20000
G04 P0 ( dwell for no time -- G64 should not smooth over this point )
X44.93260 Y14.20177
X45.13580 Y14.02397
X45.44060 Y13.51597
X45.56760 Y12.83017
X45.54220 Y11.43317
X45.31360 Y10.84897
X44.93260 Y10.41717
X44.45000 Y10.08697
X43.99280 Y9.93457
X43.20540 Y9.90917
X42.41800 Y9.93457
X42.08780 Y10.01077
X41.65600 Y10.18857
X41.22420 Y10.56957
X41.04640 Y10.79817
X40.81780 Y11.38237
X40.76700 Y11.73797
X40.79240 Y13.13497
X41.02100 Y13.71917
X41.17340 Y13.97317
X41.57980 Y14.37957
X42.29100 Y14.68437
X43.07840 Y14.70977
X43.86580 Y14.68437
X44.37380 Y14.58277
X44.93260 Y14.22717
G04 P0 ( dwell for no time -- G64 should not smooth over this point )
G00 Z1.00000 ( retract )

G00 X31.01340 Y13.99857 ( rapid move to begin. )
G01 Z-0.20000
G04 P0 ( dwell for no time -- G64 should not smooth over this point )
X31.01340 Y13.99857
X30.88640 Y13.54137
X30.88640 Y11.50937
X30.78480 Y11.10297
X30.14980 Y10.92517
X28.62580 Y10.92517
X28.44800 Y11.56017
X28.42260 Y14.48117
X29.00680 Y14.50657
X29.13380 Y14.43037
X29.46400 Y14.35417
X30.65780 Y14.32877
X31.08960 Y14.40497
X31.16580 Y14.27797
X31.01340 Y14.02397
G04 P0 ( dwell for no time -- G64 should not smooth over this point )
G00 Z1.00000 ( retract )

G00 X26.18740 Y11.91577 ( rapid move to begin. )
G01 Z-0.20000
G04 P0 ( dwell for no time -- G64 should not smooth over this point )
X26.18740 Y11.91577
X26.18740 Y9.90917
X22.52980 Y9.90917
X21.89480 Y10.08697
X21.81860 Y10.21397
X21.81860 Y12.24597
X21.86940 Y12.29677
X26.18740 Y12.29677
X26.18740 Y11.94117

G04 P0 ( dwell for no time -- G64 should not smooth over this point )
G00 Z30.00000 ( retract )

M5 ( Spindle off. )
M9 ( Coolant off. )
M2 ( Program end. )

