( pcb2gcode 1.2.1 )
( Software-independent Gcode )
      
G94 ( Millimeters per minute feed rate. )
G21 ( Units == Millimeters. )

G90 ( Absolute coordinates. )
S6000 ( RPM spindle speed. )
G64 P0.05080 ( set maximum deviation from commanded toolpath )
F200.00000 ( Feedrate. )

F200.00000 ( Feedrate. )
M3 ( Spindle on clockwise. )
G04 P0 ( dwell for no time -- G64 should not smooth over this point )
G00 Z1.00000 ( retract )

G00 X18.16100 Y40.23677 ( rapid move to begin. )
G01 Z-0.20000
G04 P0 ( dwell for no time -- G64 should not smooth over this point )
X18.16100 Y40.23677
X18.41500 Y40.10977
X18.64360 Y39.93197
X18.99920 Y39.47477
X19.22780 Y38.89057
X19.25320 Y38.10317
X19.20240 Y37.74757
X18.97380 Y37.16337
X18.59280 Y36.73157
X18.11020 Y36.40137
X17.80540 Y36.29977
X17.44980 Y36.24897
X16.66240 Y36.27437
X16.33220 Y36.35057
X16.05280 Y36.47757
X15.59560 Y36.83317
X15.26540 Y37.31577
X15.13840 Y37.59517
X15.06220 Y38.33177
X15.08760 Y38.91597
X15.31620 Y39.50017
X15.69720 Y39.93197
X16.17980 Y40.26217
X16.63700 Y40.41457
X17.42440 Y40.43997
X17.78000 Y40.38917
X18.16100 Y40.26217
G04 P0 ( dwell for no time -- G64 should not smooth over this point )
G00 Z1.00000 ( retract )

G00 X44.17060 Y40.23677 ( rapid move to begin. )
G01 Z-0.20000
G04 P0 ( dwell for no time -- G64 should not smooth over this point )
X44.17060 Y40.23677
X44.42460 Y40.10977
X44.65320 Y39.93197
X45.00880 Y39.47477
X45.23740 Y38.89057
X45.26280 Y38.10317
X45.21200 Y37.74757
X44.98340 Y37.16337
X44.60240 Y36.73157
X44.11980 Y36.40137
X43.81500 Y36.29977
X43.45940 Y36.24897
X42.67200 Y36.27437
X42.34180 Y36.35057
X42.06240 Y36.47757
X41.60520 Y36.83317
X41.27500 Y37.31577
X41.14800 Y37.59517
X41.07180 Y38.33177
X41.09720 Y38.91597
X41.32580 Y39.50017
X41.70680 Y39.93197
X42.18940 Y40.26217
X42.64660 Y40.41457
X43.43400 Y40.43997
X43.78960 Y40.38917
X44.17060 Y40.26217
G04 P0 ( dwell for no time -- G64 should not smooth over this point )
G00 Z1.00000 ( retract )

G00 X29.76880 Y39.90657 ( rapid move to begin. )
G01 Z-0.20000
G04 P0 ( dwell for no time -- G64 should not smooth over this point )
X29.76880 Y39.90657
X29.79420 Y39.55097
X29.89580 Y39.55097
X29.94660 Y40.10977
X31.67380 Y40.10977
X31.67380 Y39.55097
X32.08020 Y39.55097
X32.71520 Y38.96677
X32.76600 Y38.81437
X32.76600 Y37.49357
X32.96920 Y37.29037
X33.09620 Y37.26497
X33.09620 Y37.82377
X34.82340 Y37.82377
X34.84880 Y35.91877
X34.36620 Y35.89337
X34.36620 Y33.96297
X34.46780 Y33.96297
X34.46780 Y31.42297
X33.47720 Y31.39757
X33.47720 Y33.93757
X33.55340 Y33.96297
X33.57880 Y35.91877
X33.09620 Y35.94417
X33.09620 Y36.45217
X32.51200 Y36.47757
X32.35960 Y36.52837
X31.97860 Y36.96017
X31.97860 Y38.38257
X31.67380 Y38.68737
X31.64840 Y38.20477
X29.92120 Y38.20477
X29.92120 Y38.76357
X29.76880 Y38.76357
X29.76880 Y38.20477
X28.04160 Y38.20477
X28.01620 Y40.10977
X29.74340 Y40.10977
X29.76880 Y39.93197
G04 P0 ( dwell for no time -- G64 should not smooth over this point )
G00 Z1.00000 ( retract )

G00 X34.84880 Y39.90657 ( rapid move to begin. )
G01 Z-0.20000
G04 P0 ( dwell for no time -- G64 should not smooth over this point )
X34.84880 Y39.90657
X34.87420 Y39.55097
X36.27120 Y39.57637
X36.27120 Y40.08437
X38.02380 Y40.10977
X37.99840 Y38.20477
X36.27120 Y38.20477
X36.27120 Y38.76357
X35.66160 Y38.76357
X35.63620 Y33.96297
X35.73780 Y33.96297
X35.73780 Y31.42297
X34.74720 Y31.39757
X34.74720 Y33.93757
X34.82340 Y33.96297
X34.84880 Y38.20477
X33.12160 Y38.20477
X33.09620 Y40.10977
X34.82340 Y40.10977
X34.84880 Y39.93197
G04 P0 ( dwell for no time -- G64 should not smooth over this point )
G00 Z1.00000 ( retract )

G00 X24.68880 Y37.69677 ( rapid move to begin. )
G01 Z-0.20000
G04 P0 ( dwell for no time -- G64 should not smooth over this point )
X24.68880 Y37.69677
X24.71420 Y37.34117
X28.01620 Y37.34117
X28.04160 Y37.82377
X29.76880 Y37.82377
X29.74340 Y35.91877
X29.43860 Y35.91877
X30.25140 Y35.10597
X30.53080 Y34.77577
X30.55620 Y33.98837
X30.63240 Y33.96297
X30.65780 Y31.39757
X29.66720 Y31.42297
X29.66720 Y33.96297
X29.76880 Y33.96297
X29.76880 Y34.26777
X28.54960 Y35.48697
X28.47340 Y35.91877
X28.01620 Y35.91877
X28.01620 Y36.52837
X24.68880 Y36.55377
X24.68880 Y35.99497
X22.96160 Y35.99497
X22.93620 Y37.89997
X24.66340 Y37.89997
X24.68880 Y37.72217
G04 P0 ( dwell for no time -- G64 should not smooth over this point )
G00 Z1.00000 ( retract )

G00 X31.67380 Y37.62057 ( rapid move to begin. )
G01 Z-0.20000
G04 P0 ( dwell for no time -- G64 should not smooth over this point )
X31.67380 Y37.62057
X31.67380 Y36.52837
X33.07080 Y35.08057
X33.09620 Y33.98837
X33.17240 Y33.96297
X33.19780 Y31.54997
X33.60420 Y31.14357
X37.21100 Y31.14357
X37.21100 Y31.54997
X38.93820 Y31.54997
X38.96360 Y29.64497
X37.23640 Y29.64497
X37.21100 Y30.33077
X33.14700 Y30.33077
X32.99460 Y30.38157
X32.30880 Y31.11817
X32.28340 Y31.39757
X32.20720 Y31.42297
X32.20720 Y33.96297
X32.30880 Y33.96297
X32.30880 Y34.57257
X30.98800 Y35.89337
X29.92120 Y35.94417
X29.92120 Y37.82377
X31.64840 Y37.82377
X31.67380 Y37.64597
G04 P0 ( dwell for no time -- G64 should not smooth over this point )
G00 Z1.00000 ( retract )

G00 X38.02380 Y37.62057 ( rapid move to begin. )
G01 Z-0.20000
G04 P0 ( dwell for no time -- G64 should not smooth over this point )
X38.02380 Y37.62057
X38.02380 Y35.91877
X36.29660 Y35.91877
X36.27120 Y37.82377
X37.99840 Y37.82377
X38.02380 Y37.64597
G04 P0 ( dwell for no time -- G64 should not smooth over this point )
G00 Z1.00000 ( retract )

G00 X24.68880 Y35.41077 ( rapid move to begin. )
G01 Z-0.20000
G04 P0 ( dwell for no time -- G64 should not smooth over this point )
X24.68880 Y35.41077
X24.66340 Y33.42957
X24.71420 Y32.87077
X25.09520 Y32.89617
X25.27300 Y33.12477
X25.52700 Y33.27717
X26.49220 Y33.27717
X26.74620 Y33.12477
X27.02560 Y32.69297
X27.12720 Y32.69297
X27.12720 Y33.96297
X28.11780 Y33.93757
X28.11780 Y31.39757
X27.12720 Y31.42297
X27.10180 Y31.90557
X27.00020 Y31.90557
X27.00020 Y31.80397
X26.79700 Y31.49917
X26.54300 Y31.34677
X26.41600 Y31.32137
X26.41600 Y25.93657
X27.96540 Y24.43797
X28.11780 Y24.43797
X28.11780 Y21.89797
X27.12720 Y21.87257
X27.10180 Y23.87917
X25.67940 Y25.30157
X25.62860 Y25.45397
X25.60320 Y31.32137
X25.32380 Y31.44837
X25.09520 Y31.72777
X24.68880 Y31.72777
X24.68880 Y31.21977
X22.96160 Y31.21977
X22.93620 Y31.70237
X21.33600 Y31.72777
X20.34540 Y31.70237
X19.32940 Y30.68637
X19.30400 Y29.08617
X19.50720 Y28.98457
X19.71040 Y28.67977
X19.71040 Y28.57817
X21.13280 Y28.57817
X21.28520 Y28.52737
X22.09800 Y27.71457
X22.27580 Y27.48597
X22.30120 Y21.31377
X22.50440 Y21.31377
X22.52980 Y19.91677
X20.92960 Y19.94217
X20.92960 Y21.31377
X21.51380 Y21.33917
X21.51380 Y26.92717
X20.65020 Y27.79077
X19.73580 Y27.79077
X19.60880 Y27.51137
X19.27860 Y27.23197
X18.92300 Y27.18117
X18.23720 Y27.20657
X17.98320 Y27.35897
X17.80540 Y27.58757
X17.72920 Y27.91777
X17.72920 Y28.52737
X17.85620 Y28.80677
X18.03400 Y29.03537
X18.16100 Y29.11157
X18.16100 Y31.14357
X18.23720 Y31.47377
X19.45640 Y32.69297
X19.71040 Y32.84537
X22.93620 Y32.87077
X22.93620 Y33.12477
X22.98700 Y33.12477
X22.98700 Y33.53117
X22.93620 Y33.88677
X22.93620 Y35.61397
X24.66340 Y35.61397
X24.68880 Y35.43617
G04 P0 ( dwell for no time -- G64 should not smooth over this point )
G00 Z1.00000 ( retract )

G00 X29.38780 Y33.75977 ( rapid move to begin. )
G01 Z-0.20000
G04 P0 ( dwell for no time -- G64 should not smooth over this point )
X29.38780 Y33.75977
X29.38780 Y31.54997
X31.80080 Y29.08617
X31.82620 Y28.75597
X31.92780 Y28.75597
X31.92780 Y26.21597
X31.85160 Y26.19057
X33.07080 Y24.97137
X33.09620 Y24.43797
X33.19780 Y24.43797
X33.19780 Y21.89797
X32.20720 Y21.87257
X32.20720 Y24.41257
X32.28340 Y24.43797
X31.06420 Y25.65717
X31.03880 Y26.19057
X30.93720 Y26.19057
X30.93720 Y28.62897
X28.52420 Y31.09277
X28.49880 Y31.37217
X28.42260 Y31.39757
X28.39720 Y33.96297
X29.38780 Y33.93757
X29.38780 Y33.78517
G04 P0 ( dwell for no time -- G64 should not smooth over this point )
G00 Z1.00000 ( retract )

G00 X31.92780 Y33.75977 ( rapid move to begin. )
G01 Z-0.20000
G04 P0 ( dwell for no time -- G64 should not smooth over this point )
X31.92780 Y33.75977
X31.92780 Y31.39757
X31.82620 Y31.39757
X31.82620 Y30.99117
X32.94380 Y29.87357
X33.90900 Y29.82277
X34.13760 Y29.64497
X34.36620 Y29.36557
X34.36620 Y28.75597
X34.46780 Y28.75597
X34.46780 Y26.21597
X34.39160 Y26.19057
X34.36620 Y24.43797
X34.46780 Y24.43797
X34.46780 Y21.89797
X33.47720 Y21.87257
X33.47720 Y24.41257
X33.55340 Y24.43797
X33.57880 Y26.19057
X33.47720 Y26.19057
X33.47720 Y28.73057
X33.55340 Y28.75597
X33.57880 Y28.83217
X33.37560 Y29.03537
X32.41040 Y29.08617
X31.08960 Y30.40697
X31.03880 Y30.55937
X31.03880 Y31.37217
X30.96260 Y31.39757
X30.93720 Y33.96297
X31.92780 Y33.93757
X31.92780 Y33.78517
G04 P0 ( dwell for no time -- G64 should not smooth over this point )
G00 Z1.00000 ( retract )

G00 X57.63260 Y33.55657 ( rapid move to begin. )
G01 Z-0.20000
G04 P0 ( dwell for no time -- G64 should not smooth over this point )
X57.63260 Y33.55657
X57.65800 Y17.14817
X57.60720 Y16.99577
X57.32780 Y16.86877
X41.07180 Y16.86877
X40.91940 Y16.91957
X40.81780 Y17.02117
X40.76700 Y17.17357
X40.74160 Y23.14257
X38.96360 Y23.14257
X38.96360 Y22.58377
X37.23640 Y22.58377
X37.21100 Y24.48877
X38.93820 Y24.48877
X38.98900 Y23.92997
X40.76700 Y23.92997
X40.76700 Y33.48037
X40.81780 Y33.63277
X41.09720 Y33.75977
X57.35320 Y33.75977
X57.50560 Y33.70897
X57.63260 Y33.58197
G04 P0 ( dwell for no time -- G64 should not smooth over this point )
G00 Z1.00000 ( retract )

G00 X24.68880 Y30.63557 ( rapid move to begin. )
G01 Z-0.20000
G04 P0 ( dwell for no time -- G64 should not smooth over this point )
X24.68880 Y30.63557
X24.68880 Y28.93377
X24.20620 Y28.90837
X24.20620 Y28.19717
X24.68880 Y28.17177
X24.66340 Y26.67317
X22.93620 Y26.67317
X22.96160 Y28.17177
X23.41880 Y28.17177
X23.41880 Y28.93377
X22.93620 Y28.95917
X22.93620 Y30.83877
X24.66340 Y30.83877
X24.68880 Y30.66097
G04 P0 ( dwell for no time -- G64 should not smooth over this point )
G00 Z1.00000 ( retract )

G00 X38.96360 Y29.06077 ( rapid move to begin. )
G01 Z-0.20000
G04 P0 ( dwell for no time -- G64 should not smooth over this point )
X38.96360 Y29.06077
X38.96360 Y27.35897
X38.48100 Y27.33357
X38.48100 Y26.77477
X38.96360 Y26.74937
X38.96360 Y24.86977
X37.23640 Y24.86977
X37.21100 Y26.77477
X37.69360 Y26.80017
X37.69360 Y27.35897
X37.21100 Y27.38437
X37.21100 Y29.26397
X38.93820 Y29.26397
X38.96360 Y29.08617
G04 P0 ( dwell for no time -- G64 should not smooth over this point )
G00 Z1.00000 ( retract )

G00 X28.11780 Y28.55277 ( rapid move to begin. )
G01 Z-0.20000
G04 P0 ( dwell for no time -- G64 should not smooth over this point )
X28.11780 Y28.55277
X28.11780 Y26.19057
X27.12720 Y26.21597
X27.12720 Y28.75597
X28.11780 Y28.73057
X28.11780 Y28.57817
G04 P0 ( dwell for no time -- G64 should not smooth over this point )
G00 Z1.00000 ( retract )

G00 X29.38780 Y28.55277 ( rapid move to begin. )
G01 Z-0.20000
G04 P0 ( dwell for no time -- G64 should not smooth over this point )
X29.38780 Y28.55277
X29.38780 Y26.19057
X28.39720 Y26.21597
X28.39720 Y28.75597
X29.38780 Y28.73057
X29.38780 Y28.57817
G04 P0 ( dwell for no time -- G64 should not smooth over this point )
G00 Z1.00000 ( retract )

G00 X30.65780 Y28.55277 ( rapid move to begin. )
G01 Z-0.20000
G04 P0 ( dwell for no time -- G64 should not smooth over this point )
X30.65780 Y28.55277
X30.65780 Y26.19057
X29.66720 Y26.21597
X29.66720 Y28.75597
X30.65780 Y28.73057
X30.65780 Y28.57817
G04 P0 ( dwell for no time -- G64 should not smooth over this point )
G00 Z1.00000 ( retract )

G00 X33.19780 Y28.55277 ( rapid move to begin. )
G01 Z-0.20000
G04 P0 ( dwell for no time -- G64 should not smooth over this point )
X33.19780 Y28.55277
X33.19780 Y26.19057
X32.20720 Y26.21597
X32.20720 Y28.75597
X33.19780 Y28.73057
X33.19780 Y28.57817
G04 P0 ( dwell for no time -- G64 should not smooth over this point )
G00 Z1.00000 ( retract )

G00 X35.73780 Y28.55277 ( rapid move to begin. )
G01 Z-0.20000
G04 P0 ( dwell for no time -- G64 should not smooth over this point )
X35.73780 Y28.55277
X35.73780 Y26.19057
X35.63620 Y26.19057
X35.63620 Y24.46337
X35.71240 Y24.43797
X35.73780 Y21.87257
X35.63620 Y21.87257
X35.63620 Y19.23097
X35.73780 Y19.23097
X35.73780 Y16.69097
X35.66160 Y16.66557
X35.63620 Y16.38617
X36.06800 Y16.36077
X36.06800 Y14.63357
X35.50920 Y14.58277
X35.53460 Y14.20177
X36.04260 Y14.20177
X36.04260 Y11.05217
X33.88360 Y11.02677
X33.88360 Y13.16037
X33.70580 Y13.18577
X33.52800 Y13.16037
X33.52800 Y12.65237
X31.87700 Y12.62697
X31.87700 Y13.18577
X31.69920 Y12.95717
X31.67380 Y10.74737
X30.96260 Y10.03617
X29.36240 Y10.01077
X27.96540 Y10.03617
X27.73680 Y10.21397
X26.41600 Y10.21397
X26.44140 Y12.11897
X28.16860 Y12.11897
X28.19400 Y11.12837
X28.49880 Y10.82357
X30.40380 Y10.79817
X30.60700 Y11.00137
X30.81020 Y11.10297
X30.91180 Y11.30617
X30.93720 Y13.51597
X31.31820 Y13.94777
X31.87700 Y13.99857
X31.87700 Y14.10017
X33.52800 Y14.12557
X33.52800 Y13.97317
X33.88360 Y13.97317
X33.88360 Y14.17637
X34.72180 Y14.20177
X34.72180 Y14.60817
X34.16300 Y14.60817
X34.16300 Y16.33537
X34.84880 Y16.36077
X34.84880 Y16.66557
X34.74720 Y16.66557
X34.74720 Y19.20557
X34.82340 Y19.23097
X34.84880 Y20.47557
X31.82620 Y20.50097
X31.08960 Y21.18677
X31.03880 Y21.33917
X31.03880 Y21.84717
X30.96260 Y21.87257
X30.93720 Y24.43797
X31.92780 Y24.41257
X31.92780 Y21.87257
X31.82620 Y21.87257
X31.82620 Y21.77097
X32.33420 Y21.26297
X34.84880 Y21.28837
X34.82340 Y21.87257
X34.74720 Y21.89797
X34.74720 Y24.43797
X34.84880 Y24.43797
X34.84880 Y26.16517
X34.77260 Y26.19057
X34.74720 Y28.75597
X35.73780 Y28.73057
X35.73780 Y28.57817
G04 P0 ( dwell for no time -- G64 should not smooth over this point )
G00 Z1.00000 ( retract )

G00 X19.48180 Y26.44457 ( rapid move to begin. )
G01 Z-0.20000
G04 P0 ( dwell for no time -- G64 should not smooth over this point )
X19.48180 Y26.44457
X19.65960 Y26.24137
X19.71040 Y26.03817
X20.29460 Y26.01277
X21.00580 Y25.30157
X21.03120 Y22.07577
X19.93900 Y20.93277
X19.91360 Y20.29777
X20.32000 Y20.29777
X20.29460 Y18.90077
X18.71980 Y18.90077
X18.74520 Y20.29777
X19.12620 Y20.32317
X19.12620 Y21.44077
X20.21840 Y22.58377
X20.24380 Y24.18397
X20.21840 Y24.76817
X19.73580 Y25.25077
X19.60880 Y24.97137
X19.27860 Y24.69197
X18.92300 Y24.64117
X18.23720 Y24.66657
X17.98320 Y24.81897
X17.80540 Y25.04757
X17.72920 Y25.37777
X17.72920 Y25.98737
X17.85620 Y26.26677
X18.03400 Y26.49537
X18.31340 Y26.62237
X18.69440 Y26.64777
X19.25320 Y26.59697
X19.48180 Y26.46997
G04 P0 ( dwell for no time -- G64 should not smooth over this point )
G00 Z1.00000 ( retract )

G00 X24.68880 Y25.68257 ( rapid move to begin. )
G01 Z-0.20000
G04 P0 ( dwell for no time -- G64 should not smooth over this point )
X24.68880 Y25.68257
X24.71420 Y24.92057
X25.52700 Y24.10777
X25.60320 Y23.98077
X25.60320 Y22.35517
X25.95880 Y22.30437
X25.95880 Y21.89797
X27.96540 Y21.87257
X28.32100 Y21.92337
X28.39720 Y22.05037
X28.39720 Y24.43797
X29.38780 Y24.41257
X29.38780 Y21.87257
X29.28620 Y21.87257
X29.28620 Y21.66937
X29.23540 Y21.51697
X28.80360 Y21.13597
X25.98420 Y21.11057
X25.95880 Y20.67877
X24.46020 Y20.70417
X24.46020 Y22.32977
X24.81580 Y22.32977
X24.81580 Y23.44737
X23.90140 Y24.36177
X22.93620 Y24.41257
X22.93620 Y25.88577
X24.66340 Y25.88577
X24.68880 Y25.70797
G04 P0 ( dwell for no time -- G64 should not smooth over this point )
G00 Z1.00000 ( retract )

G00 X30.65780 Y24.23477 ( rapid move to begin. )
G01 Z-0.20000
G04 P0 ( dwell for no time -- G64 should not smooth over this point )
X30.65780 Y24.23477
X30.65780 Y21.87257
X30.55620 Y21.87257
X30.55620 Y20.95817
X29.76880 Y20.11997
X29.43860 Y19.84057
X27.00020 Y19.84057
X26.36520 Y19.25637
X26.21280 Y19.20557
X25.95880 Y19.20557
X25.95880 Y18.79917
X24.46020 Y18.77377
X24.46020 Y20.39937
X25.95880 Y20.42477
X25.95880 Y20.22157
X26.44140 Y20.62797
X28.87980 Y20.62797
X29.76880 Y21.46617
X29.76880 Y21.87257
X29.66720 Y21.87257
X29.66720 Y24.41257
X30.65780 Y24.43797
X30.65780 Y24.23477
G04 P0 ( dwell for no time -- G64 should not smooth over this point )
G00 Z1.00000 ( retract )

G00 X19.68500 Y23.85377 ( rapid move to begin. )
G01 Z-0.20000
G04 P0 ( dwell for no time -- G64 should not smooth over this point )
X19.68500 Y23.85377
X19.68500 Y22.15197
X18.46580 Y22.15197
X17.85620 Y21.54237
X17.85620 Y18.29117
X18.36420 Y17.78317
X20.19300 Y17.78317
X20.34540 Y17.73237
X21.56460 Y16.51317
X21.64080 Y16.38617
X21.66620 Y13.87157
X21.94560 Y13.84617
X21.99640 Y14.40497
X23.72360 Y14.40497
X23.69820 Y12.49997
X21.97100 Y12.49997
X21.97100 Y13.05877
X21.66620 Y13.05877
X21.69160 Y10.03617
X22.19960 Y9.52817
X31.44520 Y9.52817
X32.28340 Y10.31557
X32.30880 Y11.10297
X31.90240 Y11.10297
X31.87700 Y12.60157
X33.50260 Y12.60157
X33.52800 Y11.10297
X33.12160 Y11.10297
X33.09620 Y9.90917
X33.04540 Y9.75677
X32.23260 Y8.94397
X32.00400 Y8.76617
X21.66620 Y8.74077
X20.92960 Y9.42657
X20.87880 Y9.57897
X20.85340 Y15.85277
X19.73580 Y16.97037
X17.93240 Y16.99577
X17.78000 Y17.04657
X17.09420 Y17.78317
X17.06880 Y22.02497
X17.11960 Y22.17737
X17.78000 Y22.83777
X17.78000 Y24.05697
X19.68500 Y24.03157
X19.68500 Y23.87917
G04 P0 ( dwell for no time -- G64 should not smooth over this point )
G00 Z1.00000 ( retract )

G00 X24.43480 Y22.12657 ( rapid move to begin. )
G01 Z-0.20000
G04 P0 ( dwell for no time -- G64 should not smooth over this point )
X24.43480 Y22.12657
X24.43480 Y20.67877
X24.07920 Y20.67877
X24.07920 Y20.42477
X24.43480 Y20.42477
X24.43480 Y18.79917
X24.35860 Y18.77377
X26.08580 Y17.04657
X26.11120 Y16.36077
X26.51760 Y16.36077
X26.54300 Y14.60817
X24.63800 Y14.63357
X24.63800 Y16.36077
X25.32380 Y16.38617
X25.32380 Y16.48777
X23.69820 Y18.11337
X23.31720 Y18.54517
X23.29180 Y18.77377
X22.93620 Y18.77377
X22.93620 Y20.39937
X23.29180 Y20.45017
X23.29180 Y20.65337
X22.93620 Y20.70417
X22.93620 Y22.32977
X24.43480 Y22.30437
X24.43480 Y22.15197
G04 P0 ( dwell for no time -- G64 should not smooth over this point )
G00 Z1.00000 ( retract )

G00 X22.52980 Y19.07857 ( rapid move to begin. )
G01 Z-0.20000
G04 P0 ( dwell for no time -- G64 should not smooth over this point )
X22.52980 Y19.07857
X22.52980 Y18.39277
X23.34260 Y17.57997
X23.57120 Y17.30057
X23.57120 Y16.38617
X24.25700 Y16.36077
X24.25700 Y14.63357
X22.35200 Y14.60817
X22.35200 Y16.33537
X22.78380 Y16.36077
X22.78380 Y16.76717
X21.66620 Y17.88477
X20.95500 Y17.88477
X20.92960 Y19.28177
X22.52980 Y19.25637
X22.52980 Y19.10397
G04 P0 ( dwell for no time -- G64 should not smooth over this point )
G00 Z1.00000 ( retract )

G00 X28.11780 Y19.02777 ( rapid move to begin. )
G01 Z-0.20000
G04 P0 ( dwell for no time -- G64 should not smooth over this point )
X28.11780 Y19.02777
X28.11780 Y16.66557
X27.12720 Y16.69097
X27.12720 Y19.23097
X28.11780 Y19.20557
X28.11780 Y19.05317
G04 P0 ( dwell for no time -- G64 should not smooth over this point )
G00 Z1.00000 ( retract )

G00 X29.38780 Y19.02777 ( rapid move to begin. )
G01 Z-0.20000
G04 P0 ( dwell for no time -- G64 should not smooth over this point )
X29.38780 Y19.02777
X29.38780 Y16.66557
X28.39720 Y16.69097
X28.39720 Y19.23097
X29.38780 Y19.20557
X29.38780 Y19.05317
G04 P0 ( dwell for no time -- G64 should not smooth over this point )
G00 Z1.00000 ( retract )

G00 X30.65780 Y19.02777 ( rapid move to begin. )
G01 Z-0.20000
G04 P0 ( dwell for no time -- G64 should not smooth over this point )
X30.65780 Y19.02777
X30.65780 Y16.66557
X29.66720 Y16.69097
X29.66720 Y19.23097
X30.65780 Y19.20557
X30.65780 Y19.05317
G04 P0 ( dwell for no time -- G64 should not smooth over this point )
G00 Z1.00000 ( retract )

G00 X31.92780 Y19.02777 ( rapid move to begin. )
G01 Z-0.20000
G04 P0 ( dwell for no time -- G64 should not smooth over this point )
X31.92780 Y19.02777
X31.92780 Y16.66557
X30.93720 Y16.69097
X30.93720 Y19.23097
X31.92780 Y19.20557
X31.92780 Y19.05317
G04 P0 ( dwell for no time -- G64 should not smooth over this point )
G00 Z1.00000 ( retract )

G00 X33.19780 Y19.02777 ( rapid move to begin. )
G01 Z-0.20000
G04 P0 ( dwell for no time -- G64 should not smooth over this point )
X33.19780 Y19.02777
X33.19780 Y16.66557
X32.20720 Y16.69097
X32.20720 Y19.23097
X33.19780 Y19.20557
X33.19780 Y19.05317
G04 P0 ( dwell for no time -- G64 should not smooth over this point )
G00 Z1.00000 ( retract )

G00 X34.46780 Y19.02777 ( rapid move to begin. )
G01 Z-0.20000
G04 P0 ( dwell for no time -- G64 should not smooth over this point )
X34.46780 Y19.02777
X34.46780 Y16.66557
X33.47720 Y16.69097
X33.47720 Y19.23097
X34.46780 Y19.20557
X34.46780 Y19.05317
G04 P0 ( dwell for no time -- G64 should not smooth over this point )
G00 Z1.00000 ( retract )

G00 X30.91180 Y16.28457 ( rapid move to begin. )
G01 Z-0.20000
G04 P0 ( dwell for no time -- G64 should not smooth over this point )
X30.91180 Y16.28457
X31.03880 Y16.13217
X31.16580 Y15.85277
X31.14040 Y15.06537
X31.01340 Y14.78597
X30.78480 Y14.60817
X30.50540 Y14.48117
X29.71800 Y14.50657
X29.38780 Y14.68437
X29.18460 Y14.98917
X29.15920 Y15.77657
X29.18460 Y15.95437
X29.33700 Y16.20837
X29.69260 Y16.46237
X30.48000 Y16.48777
X30.65780 Y16.46237
X30.91180 Y16.30997
G04 P0 ( dwell for no time -- G64 should not smooth over this point )
G00 Z1.00000 ( retract )

G00 X33.78200 Y16.15757 ( rapid move to begin. )
G01 Z-0.20000
G04 P0 ( dwell for no time -- G64 should not smooth over this point )
X33.78200 Y16.15757
X33.78200 Y14.60817
X31.87700 Y14.63357
X31.87700 Y16.36077
X33.78200 Y16.33537
X33.78200 Y16.18297
G04 P0 ( dwell for no time -- G64 should not smooth over this point )
G00 Z1.00000 ( retract )

G00 X18.16100 Y14.20177 ( rapid move to begin. )
G01 Z-0.20000
G04 P0 ( dwell for no time -- G64 should not smooth over this point )
X18.16100 Y14.20177
X18.41500 Y14.07477
X18.64360 Y13.89697
X18.99920 Y13.43977
X19.22780 Y12.85557
X19.25320 Y12.06817
X19.20240 Y11.71257
X18.97380 Y11.12837
X18.59280 Y10.69657
X18.11020 Y10.36637
X17.80540 Y10.26477
X17.44980 Y10.21397
X16.66240 Y10.23937
X16.33220 Y10.31557
X16.05280 Y10.44257
X15.59560 Y10.79817
X15.26540 Y11.28077
X15.13840 Y11.56017
X15.06220 Y12.29677
X15.08760 Y12.88097
X15.31620 Y13.46517
X15.69720 Y13.89697
X16.17980 Y14.22717
X16.63700 Y14.37957
X17.42440 Y14.40497
X17.78000 Y14.35417
X18.16100 Y14.22717
G04 P0 ( dwell for no time -- G64 should not smooth over this point )
G00 Z1.00000 ( retract )

G00 X25.95880 Y14.20177 ( rapid move to begin. )
G01 Z-0.20000
G04 P0 ( dwell for no time -- G64 should not smooth over this point )
X25.95880 Y14.20177
X25.98420 Y13.84617
X26.39060 Y13.84617
X26.44140 Y14.40497
X28.16860 Y14.40497
X28.14320 Y12.49997
X26.41600 Y12.49997
X26.41600 Y13.05877
X25.95880 Y13.05877
X25.95880 Y12.49997
X24.23160 Y12.49997
X24.20620 Y14.40497
X25.93340 Y14.40497
X25.95880 Y14.22717
G04 P0 ( dwell for no time -- G64 should not smooth over this point )
G00 Z1.00000 ( retract )

G00 X44.17060 Y14.20177 ( rapid move to begin. )
G01 Z-0.20000
G04 P0 ( dwell for no time -- G64 should not smooth over this point )
X44.17060 Y14.20177
X44.42460 Y14.07477
X44.65320 Y13.89697
X45.00880 Y13.43977
X45.23740 Y12.85557
X45.26280 Y12.06817
X45.21200 Y11.71257
X44.98340 Y11.12837
X44.60240 Y10.69657
X44.11980 Y10.36637
X43.81500 Y10.26477
X43.45940 Y10.21397
X42.67200 Y10.23937
X42.34180 Y10.31557
X42.06240 Y10.44257
X41.60520 Y10.79817
X41.27500 Y11.28077
X41.14800 Y11.56017
X41.07180 Y12.29677
X41.09720 Y12.88097
X41.32580 Y13.46517
X41.70680 Y13.89697
X42.18940 Y14.22717
X42.64660 Y14.37957
X43.43400 Y14.40497
X43.78960 Y14.35417
X44.17060 Y14.22717
G04 P0 ( dwell for no time -- G64 should not smooth over this point )
G00 Z1.00000 ( retract )

G00 X30.86100 Y13.99857 ( rapid move to begin. )
G01 Z-0.20000
G04 P0 ( dwell for no time -- G64 should not smooth over this point )
X30.86100 Y13.99857
X30.83560 Y11.20457
X30.75940 Y11.07757
X30.60700 Y11.02677
X28.70200 Y11.05217
X28.70200 Y14.20177
X30.83560 Y14.20177
X30.86100 Y14.02397
G04 P0 ( dwell for no time -- G64 should not smooth over this point )
G00 Z1.00000 ( retract )

G00 X23.72360 Y11.91577 ( rapid move to begin. )
G01 Z-0.20000
G04 P0 ( dwell for no time -- G64 should not smooth over this point )
X23.72360 Y11.91577
X23.74900 Y11.56017
X24.20620 Y11.56017
X24.20620 Y12.11897
X25.93340 Y12.11897
X25.95880 Y10.21397
X24.23160 Y10.21397
X24.18080 Y10.77277
X23.72360 Y10.77277
X23.72360 Y10.21397
X21.99640 Y10.21397
X21.97100 Y12.11897
X23.69820 Y12.11897
X23.72360 Y11.94117

G04 P0 ( dwell for no time -- G64 should not smooth over this point )
G00 Z30.00000 ( retract )

M5 ( Spindle off. )
M9 ( Coolant off. )
M2 ( Program end. )

